svg/fluentui-system-icons/ic_fluent_star_12_regular.svg

<svg width="12" height="12" viewBox="0 0 12 12" fill="none" xmlns="http://www.w3.org/2000/svg">
<path d="M5.28347 1.54556C5.57692 0.95096 6.42479 0.950961 6.71825 1.54556L7.82997 3.79817L10.3159 4.15939C10.9721 4.25474 11.2341 5.06112 10.7592 5.52394L8.96043 7.27736L9.38507 9.75321C9.49716 10.4067 8.81122 10.9051 8.22431 10.5966L6.00086 9.42761L3.7774 10.5966C3.19049 10.9051 2.50455 10.4067 2.61664 9.75321L3.04128 7.27736L1.24246 5.52394C0.767651 5.06111 1.02966 4.25474 1.68584 4.15939L4.17174 3.79817L5.28347 1.54556ZM6.00086 2.35152L5.02194 4.33502C4.90541 4.57114 4.68016 4.73479 4.41959 4.77265L2.23067 5.09072L3.81459 6.63466C4.00313 6.81845 4.08917 7.08325 4.04466 7.34277L3.67075 9.52285L5.62858 8.49355C5.86164 8.37103 6.14007 8.37103 6.37313 8.49355L8.33096 9.52285L7.95705 7.34277C7.91254 7.08325 7.99858 6.81845 8.18713 6.63466L9.77105 5.09072L7.58212 4.77265C7.32156 4.73479 7.0963 4.57114 6.97977 4.33502L6.00086 2.35152Z" fill="#212121"/>
</svg>

<svg xmlns="http://www.w3.org/2000/svg" width="12" height="12"><path d="M5.283 1.546a.8.8 0 0 1 1.435 0L7.83 3.798l2.486.361a.8.8 0 0 1 .443 1.365L8.96 7.277l.425 2.476a.8.8 0 0 1-1.16.844L6 9.427l-2.224 1.17a.8.8 0 0 1-1.16-.844l.424-2.476-1.799-1.753a.8.8 0 0 1 .444-1.365l2.486-.36 1.111-2.253Zm.718.806-.98 1.983a.8.8 0 0 1-.601.438l-2.19.318 1.585 1.544a.8.8 0 0 1 .23.708l-.374 2.18 1.958-1.03a.8.8 0 0 1 .744 0l1.958 1.03-.374-2.18a.8.8 0 0 1 .23-.708L9.771 5.09l-2.189-.318a.8.8 0 0 1-.602-.438L6 2.352Z"/></svg>
